X:1
T:Ich bin der Welt abhanden gekommen
T:Ich bin der Welt abhanden gekommen
T:Nº 3 Rückert-Lieder
T:Gustav Mahler (1860-1911)
T:Friedrich Rückert (1788-1866)
C:Gustav Mahler (1860-1911)
Z:Friedrich Rückert (1788-1866)
%%score 1 { ( 2 6 7 ) | ( 3 4 5 ) }
L:1/8
Q:1/4=60
M:4/4
K:F
V:1 treble-8 nm="Tenor"
V:2 treble nm="Klavier"
V:6 treble 
V:7 treble 
V:3 bass 
V:4 bass 
V:5 bass 
V:1
"^Molto lento e ritenuto" z8 | z8 | z8 | z8 | z8 | z8 | z8 | z8 | z8 | z8 | %10
w: ||||||||||
 z4 z2!pp!"^tranquillo" C2 | D2 F2!<(! A4-!<)! |!>(! AB!>)! AG GF G A | c4 A2 z2 | %14
w: Ich~|bin der Welt|_ _ ab- * han- * den ge-|kom- men|
[M:2/4] z2 z!pp!"^rallentare sempre" B |[M:4/4] (Ad) e f e d c B | A2!ppp! G2 z4 | %17
w: mit|der _ ich sonst vie- le Zeit ver-|dor- ben|
 z!pp!"^a tempo" G A B B2 A2 | A A =B c c2 B2 | z8 | z8 | z8 | z8 | z!pp! A c A G2 A2 | %24
w: sie hat so lan- ge|nichts von mir ver- nom- men|||||sie mag wohl glau- ben|
 z A c f (g3 f | edce/d/ c=B) A z | z8 | z2 z!pp! F G A B!<(! c- | %28
w: ich sei ge- stor _|_ _ _ _ _ _ _ ben||Es ist mir auch gar|
 c!<)!!p! d2!>(! c B A!pp! G2!>)! | F2 z2 z2 z c | d d _e f g3 f | e4 z4 | z4 z2 z!p! A | %33
w: _ nichts dar- an ge- le-|gen ob|sie mich für ge- stor- ben|hält|Ich|
 B B c d (ed) c B |!>(! A2 G2!>)! z2 z!p! ^F | A2 E2 z E ^F G | (=BA) E ^F (G!<(!A/G/) F ^E!<)! | %37
w: kann auch gar nichts sa- * gen da-|ge- gen. denn|wirk- lich bin ich ge-|stor- * ben ge- stor- * * ben der|
!>(! !>!^F3!>)! z z4 | z8 | z8 | z8 | z8 | z!pp! C C D D2 C2 | z C D E G2 F2 | z2 G2 B4- | %45
w: Welt.|||||Ich bin ge- stor- ben|dem Welt- ge- tüm- mel|und ruh'|
 B A F D (d4- | d2 c2) B2 G2 | F4 z4 | z2"^intimo ed espress."!p! D2 G3 F | (F4!pp! E4) | %50
w: _ in ei- nem stil-|* * len Ge-|biet.|Ich leb' al-|lein _|
 z!pp! F G A c4 |!ppp! B2 z2 z"^senza accrescimento"!pp! G A B | d4 c4 | z8 | z2!pp! g2 f3 d | %55
w: in mei- nem Him-|mel, in mei- nem|Lie- ben||in mei- nem|
 f4 c4 | z8 | z2!pp! c2 A3 G | F4 z4 | z8 | z8 | z8 | z8 | z8 | z8 | z8 | z8 |] %67
w: Lie- ben,||in mei- nem|Lied.|||||||||
V:2
!pp! z2 (C2 D4) | z2 (C2 D2 F2- | F)(CDF A4-) | (ABAG GFGA) | [Ec]6 ([FA]2 | [Ec]6) [FA]2 | %6
 ([Dd]4 f4-) | (f2 c2 A3 G) | (F6 C2) | z2 (C2 D4-) | D2 (C2 D2 F2-) | F(CDF ADFA | c6) ([FA]2 | %13
 [Ec]4 [FA]2) ([FA]2 |[M:2/4] [CEc]4) |[M:4/4] (f2 ed c3 B | A2 G6) | (D3 E F4) | %18
 z4 z2 z"^espress."!<(! (=B | d!<)!!>(!c^G!>)!A Bc/!<(!B/ AG | B!<)!!>(!AEF!>)! GA/G/ F^C) | %21
 z C(CD) D4 | z C(CD) (DF) F2 | (A4 G2 A2)!ppp! | [FA]4 ([FA]4- | [FA]7 =B | [Ac]8) | %27
!pp! [G,_EG]7 (G, | _EFGA Bc d2 | [F_d]3) (F [_EG][CA][_GB][Ec] | [Fd]4) d4 | %31
 G4"_espress." !arpeggio![FA]4 |!p! x4 !arpeggio![DA]4 | [B,G]4 ^G4 | %34
 [^CA]3"_subito" A ([^FA]d[Ae]^f) | (^f g2) (A =B^cde) | (^f g2) (A dg=b^c') | %37
!p! (e'd'a=b!<(! d'^c'ga)!<)! |!p! (bc'/b/ a^g baef) | (g6 a2- | a4 d4-) |"^espressivo" (d4 e4) | %42
 z4 F4- | (F2 E2 D4- | D2 E2 F4-) | F4 d4- | (d2 [Ec]2 [FBd]2 [GBe]2 | %47
 [Adf])([fa][e^g][fa] [=gb][fa][=Bd][^ce]) | ([df][eg]/[df]/ [ce][=Bd] [fa][df][Bd][Ac]) | [CGc]8 | %50
 [Cc]4 [DGc]4- | [DGc]4 z4 | (d4 c4-) | c(Acf a4-) | a2!ppp! (g2 f3 d) | (f4 c4) | F6 z2 | z8 | %58
 z C(CD) (D2 C2) | z (CDE G4 | F2) z (G [A,FB]4- | BAFD)"_morendo" d4- | (d2 c2 A2 (E2) | (g8) | %64
 (f6) [Ec]2) | [FA]8- | [FA]8 |] %67
V:3
!ped! z2 z4 [A,C]2-!ped-up! |!ped! A,4 [A,C]4-!ped-up! |!ped! [A,C]2 (A,2!ped-up! C2 F2 | %3
"_senza Pedale" [CE]4) [DF]4 |!ped! [G,,C,]6!ped-up! [F,,B,,]2 |!ped! [G,,C,]6!ped-up! [F,,B,,]2 | %6
 A,8 | A,8- | A,8 | !arpeggio![C,D,F,A,]8 | !arpeggio![C,D,F,A,]8 | (!arpeggio!A,2 C4 D2) | %12
 ([CE]4 [DF]4) |!ped! (3(G,,,C,,G,, (3C,G,C)!ped-up! [A,D]4 | %14
[M:2/4]!ped! (3(G,,,C,,G,, (3C,G,!ppp!C)!ped-up! |[M:4/4] [A,D]8 | x8 | (B,3 C D4) | %18
[K:treble] (E3 ^F G3!p! ^G | A3) G F4 | (E3 _E D2 ^C2) |[K:bass]!pp! A,8 | [C,A,]8 | (F3 E D2 C2) | %24
 (EDCA, D4) | (C=B, A,2 B,C D!pp!E/F/) |!pp! (GF EG/F/ C=B, A,C/_B,/) | %27
"^sempre pp"!ped! (3(!arpeggio!F,,C,F,, (3C,F,C, (3F,,C,F,, (3C,F,!ped-up!C,) | %28
 (3(F,,C,F, (3C_EF) (3(F,,B,,F,,!ped! (3B,,F,B,)!ped-up! | %29
!ped! (3(F,,B,,G, (3B,FB,)!ped-up! (3(F,,C,F, (3C_EF,) | %30
!ped! (3(F,,,F,,B,,!ped-up!!ped! (3F,B,B,,)!ped-up!!ped! (3(B,,,F,,B,,!ped-up! (3F,B,F) | %31
!ped!!<(! (3(B,,G,C!ped-up! G2)!<)!!pp!!ped! (3(F,,D,F,!ped-up! (3A,DF) | %32
 ([_EG]2 [FA]2)!ped! (3(F,,D,F,!ped-up! (3A,DF) |!p!!<(! G,4!<)!!mp! [E,^G,]4 | %34
!p!!<(! G,6!<)!!ped! x2!ped-up! | %35
!ped! (3(D,,A,,!ped-up!!ped!E, (3G,!ped-up!A,^C (3ECA, (3G,E,A,,) | %36
 (3(D,,A,,!ped!E, (3G,!ped-up!A,^C)!ped! (3(=B,D=B (3G!ped-up!D^A,) | %37
"^molto espressivo" (^F3 ^E =E3 _E) | (F4 E3 ^D) |!pp!!ped! z2 A,6-!ped-up! | A,4 B,4- | B,4 B,4 | %42
 z2!pp! x2 [G,B,]4- | [G,B,]4 [A,-C]4 | A,4 A,4- | A,4 x4 | z8 | %47
!ped! (3(D,,!p!A,,D,!ped-up! (3F,A,D (3FDA, (3F,D,A,,) | %48
 (3(G,,D,=B,!pp! (3:2:1F3- (3FDB, (3G,D,G,,) |!ped! (B,,,G,,C,G, C4)!ped-up! | %50
 [B,,,B,,]2 [A,,,A,,]2!ped! (3(G,,,D,,G,, (3D,G,D)!ped-up! | z8 | %52
!ped! (3(C,,F,,C, (3F,A,C F2)!ped-up! z2 |!ped! z2 ([CF]2!ped-up! [A,^CG]2 [A,D^F]2) | %54
 !arpeggio![C,,G,,C,=B,DF]8 | (C,6 D,2- | D,2) (C,2 A,,3 G,,) | %57
!pp! !arpeggio![C,,=B,,D,F,A,]4 !arpeggio![C,,_B,,E,A,C]4 | F,,,2 (A,2 B,4) | B,4 A,4- | %60
 A,4 !arpeggio!D,,4- | D,,4 (([B,,,B,,]4 | [A,,,A,,]8)) | z4"^espressivo" (D,4- | %64
 D,2 C,2 A,,2 G,,2) | ((!arpeggio![F,,D]8 |!pp! [F,,C]8)) |] %67
V:4
 C,,2 z2 z4 | C4 F,4- | F,2 E,2 D,2 C,2 | z8 | (3z (G,,,C,, (3G,,C,G, C2) x2 | %5
 (3z (G,,,C,, (3G,,C,G, C2) x2 | (B,,4 =B,,4) | (C,6 D,2- | %8
 D,2"^sempre pp e Ped. ad lib." C,2 A,,2 G,,2) | (!arpeggio!C,,6 G,,2) | (!arpeggio!C,,6 G,,2) | %11
 !arpeggio![C,,C,F,]8 | x8 | x8 |[M:2/4] x4 | %15
[M:4/4] z2 z ([A,,,A,,] [A,,,A,,][D,,D,][E,,E,][F,,F,] | [E,,E,][D,,D,] [C,,C,]6) | x8 | %18
[K:treble] C3 D E4 | (F3 E D3 ^C | C4 B,4) |[K:bass] [A,,,A,,]2 z2 z2 [C,,C,]2 | %22
 [F,,,F,,]2 (F,2 G,2 A,C) | x8 | x8 | x8 | x8 | x8 | x8 | x8 | x8 | x8 | x8 | x8 | %34
 (E,2 _E,2)!pp! (3(D,,A,,D, (3^F,A,D) | x8 | x4 D,4 | !arpeggio![D,A,]4 !arpeggio![D,G,A,]4 | %38
 (D3 ^C =C3 =B,) | C,8- | C,4 !arpeggio!C,4- | C,4 !arpeggio!C,4 | F,,8 | F,,8 | %44
 (F,,2 E,,2 [D,,D,]4-) | [D,,D,]2 [C,,C,]2 [B,,,B,,]4 | [A,,,A,,]6 [G,,,G,,]2 | x8 | x8 | x8 | x8 | %51
 x8 | x8 | [C,,C,]8 | x8 | x8 | [A,C]6 [E,C]2 | x8 | [F,,C,]8 | !arpeggio![F,,C,]8 | %60
 (F,,2 E,,2) x4 | x8 | x8 | [F,,,F,,]8 | x8 | x8 | x8 |] %67
V:5
 x8 | C,,2 G,2 x4 | x8 | x8 | x8 | x8 | x8 | x8 | x8 | x8 | x8 | x8 | x8 | x8 |[M:2/4] x4 | %15
[M:4/4] x8 | x8 | x8 |[K:treble] x8 | x8 | x8 |[K:bass] x8 | x8 | x8 | x8 | x8 | x8 | x8 | x8 | %29
 x8 | x8 | x8 | x8 | x8 | x8 | x8 | x8 | x8 | x8 | C,, z z2 C,, z z2 | x4 C,, z z2 | x8 | %42
 F,,,2 C,6 | !arpeggio!F,,,2 C,6- | C,4 x4 | x8 | x8 | x8 | x8 | x8 | x8 | x8 | x8 | x8 | x8 | x8 | %56
 x8 | x8 | z2 x6 | x8 | x8 | x8 | x8 | x8 | x8 | x8 | x8 |] %67
V:6
 x8 | x8 | x8 | x8 | x8 | x8 | A3 G F2 D2 | F4 C4 | C8 | x8 | x8 | x8 | x8 | x8 |[M:2/4] x4 | %15
[M:4/4] F8 | (F4- (3F2 !>!E2 !>!_E2) | x8 | x8 | x8 | x8 | x8 | x8 | F4 F4 | x8 | x8 | x8 | x8 | %28
 (_E4 D4) | x8 | (B2 A2) G(GAB) | (c2 ^c2) x4 | c4 f!>(!f_e!pp!d!>)! | x4 (C2!>(! DE)!>)! | x8 | %35
 A3 A- A4 | A3 A x4 | x8 | x8 | z C D2 z CDF- | FCDF A4- | (ABAG GFGA) | x8 | x8 | x8 | x4 A4- | %46
 A4 x4 | x8 | x8 | x8 | G2 F2 x4 | G2 z2 z GAB | [FA]8- | [FA] x7 | x8 | (f2 c2 A3 G) | x8 | x8 | %58
 x8 | x4 (D2 C2-) | C4 x4 | [A,F]4 (!arpeggio![DF]4 | E6) x2 | [Ac]8- | [Ac]6 x2 | x8 | x8 |] %67
V:7
 x8 | x8 | x8 | x8 | x8 | x8 | x8 | x8 | x8 | x8 | x8 | x8 | x8 | x8 |[M:2/4] x4 |[M:4/4] x8 | x8 | %17
 x8 | x8 | x8 | x8 | x8 | x8 | x8 | x8 | x8 | x8 | x8 | x8 | x8 | x4 (g3 f) | e4 f!>(!fed!>)! | %32
 x8 | x8 | x8 | x8 | x8 | x8 | x8 | x8 | x8 | x8 | x8 | x8 | x8 | x2 x2 D2 E2 | F2 x2 x4 | x8 | %48
 x8 | x8 | x8 | x8 | x8 | x8 | x8 | x8 | x8 | x8 | x8 | x8 | x8 | x8 | x8 | x8 | x8 | x8 | x8 |] %67

